X:1
T:Title
%%score { ( 1 4 ) | ( 2 3 ) }
L:1/8
M:4/4
K:G
V:1 treble nm="Grand Piano"
V:4 treble 
V:2 treble 
V:3 treble 
V:1
 z4 z2[Q:1/4=100] G>A | B2 B2 [GB]>[Ac] [FA]>[FB] | G6 F>G | [FA]2 [FA]2 [FA]>[Ac] [GB]>[FA] | %4
 B6 G>A | B2 d2 d2 [DGB]>[CFA] |[M:9/8] [B,G]2 [EGc]- [EGc] [EGc]2- [EGc][EAc]>[EAc] | %7
[M:4/4] [GB]2 [FA]c [DGB]2 [CFA]2 | [B,G]6 G/A/B/c/ | d2 e2 d2 B>c | d4 B3 B | %11
 [Ac]2 [Ac][GB] [FA][FA] [Fd]>[Ac] | [GB]6 z2 | [B,EG]2 [A,^DF]2 [G,E]2 [G,=DG]>A | %14
 B2 [=Fd]2 [Ec]3 [EA] | [DG]2 [DG][GB] [FA][Ac] [GB]>[CFA] |[M:3/4] [B,G]6 |] %17
V:2
 z4 z2 [G,B,D]>[G,CD] | [G,DG]2 [G,DG]2[K:bass] [D,D]>[D,D] [D,C]>[D,D] | [G,B,]6 [A,CD]>[G,B,D] | %3
 [D,D]2 [D,D]2 [D,D]>[D,D] [D,D]>[D,D] | [G,DG]6 [G,B,D]>[G,CD] | %5
 [G,DG]2 [G,B,G]2 [G,B,G]2[K:bass] D,>D, |[M:9/8] E,2 C,- C, C,2- C,A,,>A,, | %7
[M:4/4] [D,D]2 z A D,2 D,2 | G,,6 z2 | [G,B,G]2 [G,CG]2 [G,B,G]2 [G,DG]>[A,DF] | %10
 [B,DG]4 [G,DG]3 [G,DG] | [D,D]2 [D,D][D,D] [D,D][D,D] [D,D]>[D,D] | [G,D]2 G,G, G,2 G,>D, | %13
 E,2 B,,2 C,2 B,,>[D,F,D] | [G,D]2 [B,,G,]2 [C,G,]3 [C,C] | %15
 [D,B,]2 [D,B,][D,D] [D,D][D,D] [D,D]>D, |[M:3/4] G,,6 |] %17
V:3
 x8 | x4[K:bass] x4 | x8 | x8 | x8 | x6[K:bass] x2 |[M:9/8] x9 |[M:4/4] z2 [D,D]2 z4 | x8 | x8 | %10
 x8 | x8 | x8 | x8 | x8 | x8 |[M:3/4] x6 |] %17
V:4
 x8 | x8 | x8 | x8 | x8 | x8 |[M:9/8] x9 |[M:4/4] x8 | x8 | x8 | x8 | x8 | z2 DD D2 [DGB]>[CFA] | %13
 x8 | x8 | x8 |[M:3/4] x6 |] %17

